/* XPM */
static char * cyclist_xpm[] = {
"20 20 6 1",
"  c None",
". c #171717",
"b c #286A9F",
"s c #E3A37B",
"y c #E9B62F",
"w c #F2F2F2",
"        ..          ",
"        ..          ",
"        ..          ",
"       .  .         ",
"       .  .         ",
"        ss          ",
"       ssss         ",
"      bbbbbb        ",
"     bbbbbbbb       ",
"     bbyybbyy       ",
"       byyb         ",
"       by           ",
"       yy           ",
"      y  y          ",
"      .  .          ",
"      .  .          ",
"       ..           ",
"       ..           ",
"                    ",
"                    "
};
