/* XPM */
static char * moped_xpm[] = {
"16 32 5 1",
"  c None",
". c #172027",
"b c #2878C8",
"y c #F3C735",
"l c #F2F2D8",
"       ..       ",
"      .ll.      ",
"      .ll.      ",
"      .ll.      ",
"       ..       ",
"      .bb.      ",
"     .bbbb.     ",
"     .bbbb.     ",
"      .bb.      ",
"      .bb.      ",
"     .bbbb.     ",
"    .bbbbbb.    ",
"    .bbbbbb.    ",
"     .bbbb.     ",
"      .bb.      ",
"      .bb.      ",
"      .yy.      ",
"      .yy.      ",
"      .yy.      ",
"      .yy.      ",
"     .yyyy.     ",
"     .yyyy.     ",
"      .yy.      ",
"      .yy.      ",
"      .yy.      ",
"      .yy.      ",
"     .llll.     ",
"     .llll.     ",
"      .yy.      ",
"      .yy.      ",
"       ..       ",
"       ..       "
};
