/* XPM */
static char * motorcycle_xpm[] = {
"16 32 4 1",
"  c None",
". c #15191D",
"r c #D83B32",
"l c #E8E8D8",
"       ..       ",
"      .rr.      ",
"      .rr.      ",
"      .ll.      ",
"     .rrrr.     ",
"     .rrrr.     ",
"      .rr.      ",
"      .rr.      ",
"      .rr.      ",
"     .rrrr.     ",
"    .rrrrrr.    ",
"    .rrrrrr.    ",
"     .rrrr.     ",
"      .rr.      ",
"      .rr.      ",
"      .rr.      ",
"      .rr.      ",
"      .rr.      ",
"      .rr.      ",
"      .rr.      ",
"     .rrrr.     ",
"    .rrrrrr.    ",
"    .rrrrrr.    ",
"      .rr.      ",
"      .rr.      ",
"      .rr.      ",
"      .rr.      ",
"     .llll.     ",
"     .llll.     ",
"      .rr.      ",
"      .rr.      ",
"       ..       "
};
